Gurmukhi/0A48.svg

<svg enable-background="new 0 0 336 592" viewBox="0 0 336 592" xmlns="http://www.w3.org/2000/svg"><path d="m153.096863 121.118423c-9.079056-1.298568-17.754883-.506187-26.403694-.71894-5.828476-.143379-6.988457-1.25853-7.048722-7.111565-.044593-4.330391.015297-8.661751-.003372-12.992546-.009209-2.135818.697945-3.577034 3.119766-3.54393 14.780907.20208 29.644158-1.213471 44.243569 2.434753 15.608581 3.900383 26.045624 14.245987 34.029419 27.477684 10.412277 17.256455 16.523041 36.290543 22.298782 55.431443 1.920807 6.36557 3.539719 12.822357 5.469208 19.185104 1.154587 3.807449-.114594 5.034561-3.972168 5.13411-12.248795.31604-12.220215.406677-18.704926-10.089936-6.723571-10.88327-14.316742-20.910339-26.424606-26.429703-6.457153-2.94345-13.282593-4.3703-20.31073-4.528198-10.490021-.235687-20.987152-.143509-31.481018-.222198-6.546097-.049073-8.184052-1.725251-8.233521-8.366913-.02481-3.331268.065331-6.663956.004555-9.994217-.047188-2.585831.808396-4.180908 3.695015-4.082062 13.778504.471924 27.608826-1.144241 41.33194 1.719971 16.241211 3.389801 28.27652 12.746216 37.975448 25.649536 2.555207 3.399384 4.869111 6.980133 8.080872 11.6129-4.431274-13.45607-8.561645-25.545487-15.345245-36.490601-9.608506-15.503052-23.754685-23.260666-42.320572-24.074692z"/><path d="m244.93811 275.835632c-3.453308 3.183075-7.118271 3.691956-10.730987 1.544953-3.000488-1.783142-4.69072-4.655396-3.95314-8.391724.742584-3.761597 2.96553-6.274414 6.741378-7.079101 3.357743-.715546 6.230851.414642 8.339173 3.127716 2.718216 3.497924 2.324676 7.033355-.396424 10.798156z"/><path d="m121.948006 275.814026c-3.444458 3.160675-6.987442 3.76355-10.69368 1.522095-3.074768-1.859528-4.61216-4.710907-3.987061-8.372773.606163-3.550964 2.609345-6.066192 6.189675-6.974853 3.546005-.899933 6.559997.213501 8.832763 3.032287 2.803032 3.476441 2.270501 7.018982-.341697 10.793244z"/><path d="m172.568771 221.346146c6.450638-2.189331 11.214753-.384934 12.560807 4.415298 1.43843 5.129624-1.35669 9.858109-6.539643 11.023331-3.985519.895996-6.897949-.81958-8.743454-4.151581-2.354705-4.251251-1.2574-7.995163 2.72229-11.287048z"/><path d="m113.793518 303.088989c-5.761841 1.42746-9.631638-.179229-11.492821-4.476745-1.575287-3.63739-.054123-8.270264 3.414994-10.400666 3.770904-2.315796 8.379669-1.515472 11.129989 1.93274 3.115639 3.906219 2.028321 9.0802-3.052162 12.944671z"/><path d="m251.608368 299.064514c-3.900879 5.128479-8.482483 6.145691-12.579407 3.101807-3.635513-2.701081-4.52597-7.851074-1.998596-11.558686 2.529068-3.710083 7.700806-4.86087 11.471725-2.412323 3.938752 2.557496 4.525788 6.278809 3.106278 10.869202z"/><path d="m233.123703 342.127014c-.382416 8.541229-8.767746 11.297852-13.448212 7.610901-2.720962-2.143402-4.416336-5.00885-3.45845-8.667816.897781-3.429474 2.876465-5.917847 6.668091-6.432892 3.762741-.511047 6.900879.488434 8.919357 3.893768.579254.977234.866684 2.127442 1.319214 3.596039z"/><path d="m228.089188 240.384338c3.867111 2.252015 5.654251 5.166916 4.68222 9.313416-.836441 3.568054-3.058884 5.873718-6.711044 6.527466-3.849991.689148-6.874146-.765702-8.939972-4.038361-1.917877-3.038284-1.379776-6.140167.477508-8.92041 2.465104-3.690064 6.069596-4.29451 10.491288-2.882111z"/><path d="m116.702629 312.150146c4.962647 1.296509 7.603729 4.303528 7.375382 9.009858-.206231 4.250427-2.882546 7.018829-7.090661 7.818054-4.096771.778137-7.089592-1.198456-9.008934-4.682373-2.648445-4.807373.812302-12.49762 8.724213-12.145539z"/><path d="m126.725739 350.824646c-4.307137-2.328064-6.152115-5.481903-5.128472-10.063293.782204-3.500885 2.98616-5.487915 6.422157-6.085602 5.113129-.889405 9.571991 2.273895 10.20311 7.12619.615708 4.733734-3.056854 9.021637-8.155868 9.427826-.976487.077789-1.978196-.160889-3.340927-.405121z"/><path d="m210.392273 359.18219c-3.135117 5.858185-7.769486 7.707611-12.210831 5.218567-4.144409-2.322601-5.569931-7.371155-3.262237-11.562744 2.309051-4.194092 6.135025-5.094666 10.201385-3.787873 4.501709 1.446717 6.3237 4.985993 5.271683 10.13205z"/><path d="m203.701431 242.239746c-6.507019-.336456-10.407684-4.059494-9.899048-9.007934.541428-5.267518 4.949646-8.501816 10.33461-7.458939 3.892624.75386 6.242981 3.278488 6.570877 7.148895.403611 4.764267-2.037124 7.857193-7.006439 9.317978z"/><path d="m232.607498 314.608765c3.682129-2.865143 7.316773-3.434082 10.878021-.858551 2.701981 1.954071 4.272522 4.756836 3.519852 8.244751-.763367 3.537567-2.960709 5.917724-6.529007 6.849609-3.700027.966278-6.562225-.53244-8.724213-3.386932-2.737838-3.614746-1.862594-7.173462.855347-10.848877z"/><path d="m184.649323 366.07666c-2.67273 4.183594-6.140244 5.731476-10.454377 4.169464-3.601455-1.303955-5.548111-4.160156-5.460602-8.088562.092881-4.16983 2.354416-6.86206 6.248749-8.05011 6.522766-1.989929 11.130341 3.479126 9.66623 11.969208z"/><path d="m136.80719 243.439743c2.538467 4.677307 1.564529 8.477203-2.182175 11.315506-3.024032 2.290894-6.583236 2.401489-9.72982.122849-3.498367-2.533402-4.431183-6.126542-2.913498-10.149216 2.262695-5.997299 9.223564-6.730469 14.825493-1.289139z"/><path d="m160.007965 236.428955c-2.106903 4.776138-5.604263 6.636475-10.189773 5.646057-3.507935-.75769-5.678086-3.287353-6.118866-6.979065-.638657-5.349029 2.53926-9.210281 7.686538-9.43956 5.923218-.263839 9.076325 3.478455 8.622101 10.772568z"/><path d="m159.956146 359.372833c-2.009506 4.879608-5.482544 6.716248-10.110077 5.713654-3.518921-.76239-5.729477-3.218384-6.158111-6.939148-.644745-5.596832 2.700424-9.454102 8.160278-9.49115 5.753479-.039032 8.623184 3.558441 8.10791 10.716644z"/></svg>

<svg version="1.1" id="Layer_1" xmlns="http://www.w3.org/2000/svg" xmlns:xlink="http://www.w3.org/1999/xlink" x="0px" y="0px"
	 width="100%" viewBox="0 0 336 592" enable-background="new 0 0 336 592" xml:space="preserve">
<path fill="#000000" opacity="1.000000" stroke="none" 
	d="
M153.096863,121.118423 
	C144.017807,119.819855 135.341980,120.612236 126.693169,120.399483 
	C120.864693,120.256104 119.704712,119.140953 119.644447,113.287918 
	C119.599854,108.957527 119.659744,104.626167 119.641075,100.295372 
	C119.631866,98.159554 120.339020,96.718338 122.760841,96.751442 
	C137.541748,96.953522 152.404999,95.537971 167.004410,99.186195 
	C182.612991,103.086578 193.050034,113.432182 201.033829,126.663879 
	C211.446106,143.920334 217.556870,162.954422 223.332611,182.095322 
	C225.253418,188.460892 226.872330,194.917679 228.801819,201.280426 
	C229.956406,205.087875 228.687225,206.314987 224.829651,206.414536 
	C212.580856,206.730576 212.609436,206.821213 206.124725,196.324600 
	C199.401154,185.441330 191.807983,175.414261 179.700119,169.894897 
	C173.242966,166.951447 166.417526,165.524597 159.389389,165.366699 
	C148.899368,165.131012 138.402237,165.223190 127.908371,165.144501 
	C121.362274,165.095428 119.724319,163.419250 119.674850,156.777588 
	C119.650040,153.446320 119.740181,150.113632 119.679405,146.783371 
	C119.632217,144.197540 120.487801,142.602463 123.374420,142.701309 
	C137.152924,143.173233 150.983246,141.557068 164.706360,144.421280 
	C180.947571,147.811081 192.982880,157.167496 202.681808,170.070816 
	C205.237015,173.470200 207.550919,177.050949 210.762680,181.683716 
	C206.331406,168.227646 202.201035,156.138229 195.417435,145.193115 
	C185.808929,129.690063 171.662750,121.932449 153.096863,121.118423 
z"/>
<path fill="#000000" opacity="1.000000" stroke="none" 
	d="
M244.938110,275.835632 
	C241.484802,279.018707 237.819839,279.527588 234.207123,277.380585 
	C231.206635,275.597443 229.516403,272.725189 230.253983,268.988861 
	C230.996567,265.227264 233.219513,262.714447 236.995361,261.909760 
	C240.353104,261.194214 243.226212,262.324402 245.334534,265.037476 
	C248.052750,268.535400 247.659210,272.070831 244.938110,275.835632 
z"/>
<path fill="#000000" opacity="1.000000" stroke="none" 
	d="
M121.948006,275.814026 
	C118.503548,278.974701 114.960564,279.577576 111.254326,277.336121 
	C108.179558,275.476593 106.642166,272.625214 107.267265,268.963348 
	C107.873428,265.412384 109.876610,262.897156 113.456940,261.988495 
	C117.002945,261.088562 120.016937,262.201996 122.289703,265.020782 
	C125.092735,268.497223 124.560204,272.039764 121.948006,275.814026 
z"/>
<path fill="#000000" opacity="1.000000" stroke="none" 
	d="
M172.568771,221.346146 
	C179.019409,219.156815 183.783524,220.961212 185.129578,225.761444 
	C186.568008,230.891068 183.772888,235.619553 178.589935,236.784775 
	C174.604416,237.680771 171.691986,235.965195 169.846481,232.633194 
	C167.491776,228.381943 168.589081,224.638031 172.568771,221.346146 
z"/>
<path fill="#000000" opacity="1.000000" stroke="none" 
	d="
M113.793518,303.088989 
	C108.031677,304.516449 104.161880,302.909760 102.300697,298.612244 
	C100.725410,294.974854 102.246574,290.341980 105.715691,288.211578 
	C109.486595,285.895782 114.095360,286.696106 116.845680,290.144318 
	C119.961319,294.050537 118.874001,299.224518 113.793518,303.088989 
z"/>
<path fill="#000000" opacity="1.000000" stroke="none" 
	d="
M251.608368,299.064514 
	C247.707489,304.192993 243.125885,305.210205 239.028961,302.166321 
	C235.393448,299.465240 234.502991,294.315247 237.030365,290.607635 
	C239.559433,286.897552 244.731171,285.746765 248.502090,288.195312 
	C252.440842,290.752808 253.027878,294.474121 251.608368,299.064514 
z"/>
<path fill="#000000" opacity="1.000000" stroke="none" 
	d="
M233.123703,342.127014 
	C232.741287,350.668243 224.355957,353.424866 219.675491,349.737915 
	C216.954529,347.594513 215.259155,344.729065 216.217041,341.070099 
	C217.114822,337.640625 219.093506,335.152252 222.885132,334.637207 
	C226.647873,334.126160 229.786011,335.125641 231.804489,338.530975 
	C232.383743,339.508209 232.671173,340.658417 233.123703,342.127014 
z"/>
<path fill="#000000" opacity="1.000000" stroke="none" 
	d="
M228.089188,240.384338 
	C231.956299,242.636353 233.743439,245.551254 232.771408,249.697754 
	C231.934967,253.265808 229.712524,255.571472 226.060364,256.225220 
	C222.210373,256.914368 219.186218,255.459518 217.120392,252.186859 
	C215.202515,249.148575 215.740616,246.046692 217.597900,243.266449 
	C220.063004,239.576385 223.667496,238.971939 228.089188,240.384338 
z"/>
<path fill="#000000" opacity="1.000000" stroke="none" 
	d="
M116.702629,312.150146 
	C121.665276,313.446655 124.306358,316.453674 124.078011,321.160004 
	C123.871780,325.410431 121.195465,328.178833 116.987350,328.978058 
	C112.890579,329.756195 109.897758,327.779602 107.978416,324.295685 
	C105.329971,319.488312 108.790718,311.798065 116.702629,312.150146 
z"/>
<path fill="#000000" opacity="1.000000" stroke="none" 
	d="
M126.725739,350.824646 
	C122.418602,348.496582 120.573624,345.342743 121.597267,340.761353 
	C122.379471,337.260468 124.583427,335.273438 128.019424,334.675751 
	C133.132553,333.786346 137.591415,336.949646 138.222534,341.801941 
	C138.838242,346.535675 135.165680,350.823578 130.066666,351.229767 
	C129.090179,351.307556 128.088470,351.068878 126.725739,350.824646 
z"/>
<path fill="#000000" opacity="1.000000" stroke="none" 
	d="
M210.392273,359.182190 
	C207.257156,365.040375 202.622787,366.889801 198.181442,364.400757 
	C194.037033,362.078156 192.611511,357.029602 194.919205,352.838013 
	C197.228256,348.643921 201.054230,347.743347 205.120590,349.050140 
	C209.622299,350.496857 211.444290,354.036133 210.392273,359.182190 
z"/>
<path fill="#000000" opacity="1.000000" stroke="none" 
	d="
M203.701431,242.239746 
	C197.194412,241.903290 193.293747,238.180252 193.802383,233.231812 
	C194.343811,227.964294 198.752029,224.729996 204.136993,225.772873 
	C208.029617,226.526733 210.379974,229.051361 210.707870,232.921768 
	C211.111481,237.686035 208.670746,240.778961 203.701431,242.239746 
z"/>
<path fill="#000000" opacity="1.000000" stroke="none" 
	d="
M232.607498,314.608765 
	C236.289627,311.743622 239.924271,311.174683 243.485519,313.750214 
	C246.187500,315.704285 247.758041,318.507050 247.005371,321.994965 
	C246.242004,325.532532 244.044662,327.912689 240.476364,328.844574 
	C236.776337,329.810852 233.914139,328.312134 231.752151,325.457642 
	C229.014313,321.842896 229.889557,318.284180 232.607498,314.608765 
z"/>
<path fill="#000000" opacity="1.000000" stroke="none" 
	d="
M184.649323,366.076660 
	C181.976593,370.260254 178.509079,371.808136 174.194946,370.246124 
	C170.593491,368.942169 168.646835,366.085968 168.734344,362.157562 
	C168.827225,357.987732 171.088760,355.295502 174.983093,354.107452 
	C181.505859,352.117523 186.113434,357.586578 184.649323,366.076660 
z"/>
<path fill="#000000" opacity="1.000000" stroke="none" 
	d="
M136.807190,243.439743 
	C139.345657,248.117050 138.371719,251.916946 134.625015,254.755249 
	C131.600983,257.046143 128.041779,257.156738 124.895195,254.878098 
	C121.396828,252.344696 120.464012,248.751556 121.981697,244.728882 
	C124.244392,238.731583 131.205261,237.998413 136.807190,243.439743 
z"/>
<path fill="#000000" opacity="1.000000" stroke="none" 
	d="
M160.007965,236.428955 
	C157.901062,241.205093 154.403702,243.065430 149.818192,242.075012 
	C146.310257,241.317322 144.140106,238.787659 143.699326,235.095947 
	C143.060669,229.746918 146.238586,225.885666 151.385864,225.656387 
	C157.309082,225.392548 160.462189,229.134842 160.007965,236.428955 
z"/>
<path fill="#000000" opacity="1.000000" stroke="none" 
	d="
M159.956146,359.372833 
	C157.946640,364.252441 154.473602,366.089081 149.846069,365.086487 
	C146.327148,364.324097 144.116592,361.868103 143.687958,358.147339 
	C143.043213,352.550507 146.388382,348.693237 151.848236,348.656189 
	C157.601715,348.617157 160.471420,352.214630 159.956146,359.372833 
z"/>
</svg>
